!!!!SEGMENT: pl-sa--102-a-iii-2--002_anonim--missa-de-nativitate-et-in-terra.krn
!!!cenid: 18xx:1273
!!!COM: Anonim
!!!COM-rismID: pe30004985
!!!CDT:
!!!CNT:
!!!OPR: Missa de Nativitate
!!!OTL: Et in terra
!!!OMV: 002
!!!PDT: 1814
!!!AGN: Sacred; Mass
!!!SMS-siglum: PL-SA
!!!SMS-shelfmark: 102/A III 2
!!!SMS-shelfwork: 001-002 M
!!!SMS-variant:
!!!SMS-altvar:
!!!NIFC-rismSourceID: 1001035508
!!!NIFC-rismChildID: 1001035508
!!!NIFC-islandoraID: none
!!!URL-pdf-islandora:
!!!URL-scan: https://bc.bdsandomierz.pl/dlibra/publication/1458/edition/1426/content @EN{Scan in the Sandomierz Diocese Digital Library} @PL{Skany w portalu Cyfrowa Biblioteka Diecezjalna w Sandomierzu}
!!!ONB-nifc: UWAGA: części Mszy: 1. Kyrie, 2. Et in terra, 3. Patrem, 4. Sanctus, 5. Benedictus, 6. Agnus Dei
!!!AIN: 1 empty 2 violn 2 vox
!!!key:
**kern	**dynam	**kern	**kern	**dynam	**kern	**text	**kern	**text
*part5	*part5	*part4	*part3	*part3	*part2	*part2	*part1	*part1
*staff5	*	*staff4	*staff3	*	*staff2	*staff2	*staff1	*staff1
*Iempty	*	*Ivioln	*Ivioln	*	*Ivox	*	*Ivox	*
*I"Baſso.	*	*I"Violino 2do.	*I"Violino Primo	*	*I"Canto 2do.	*	*I"Canto.	*
*I'b	*	*I'vl 2	*I'vl 1	*	*I'S 2	*	*I'S 1	*
*clefF4	*	*clefG2	*clefG2	*	*clefC1	*	*clefC1	*
*Trd0c0	*	*	*	*	*	*	*	*
*k[f#]	*	*k[f#]	*k[f#]	*	*k[f#]	*	*k[f#]	*
*G:	*	*G:	*G:	*	*G:	*	*G:	*
*M2/4	*	*M2/4	*M2/4	*	*M2/4	*	*M2/4	*
*	*	*	*	*below	*	*	*	*
=1	=1	=1	=1	=1	=1	=1	=1	=1
!LO:TX:b:t=Et in terra	!	!	!LO:TX:rj:b:t=Et in terra	!	!	!	!LO:TX:a:B:t=All(egr)o	!
!LO:TX:a:B:t=allo.	!	!LO:TX:b:t=Et in	!LO:TX:a:B:t=allo.	!	!LO:TX:a:B:t=allo.	!	!	!
2GG/	.	2B/	2g/	.	8b\	Et	8dd\	Et
.	.	.	.	.	8cc\	in	8ee\	in
.	.	.	.	.	8b\	ter-	8dd\	ter-
.	.	.	.	.	8a\	-ra	8cc\	-ra
=2	=2	=2	=2	=2	=2	=2	=2	=2
2GG/	.	4B/	8g/L	.	4g\	pax	4b\	pax
.	.	.	8d/	.	.	.	.	.
.	.	4r	8g/	.	4r	.	4r	.
.	.	.	8b/J	.	.	.	.	.
=3	=3	=3	=3	=3	=3	=3	=3	=3
2GG/	.	2B/	2g/	.	8b\	et	8dd\	et
.	.	.	.	.	8cc\	in	8ee\	in
.	.	.	.	.	8b\	ter-	8dd\	ter-
.	.	.	.	.	8a\	-ra	8cc\	-ra
=4	=4	=4	=4	=4	=4	=4	=4	=4
2GG/	.	4B/	8g/L	.	4g\	pax	4b\	pax
.	.	.	8d/	.	.	.	.	.
.	.	4r	8g/	.	4r	.	4r	.
.	.	.	8b/J	.	.	.	.	.
=5	=5	=5||:	=5	=5	=5	=5	=5	=5
4GG/	.	8B/L	8g/L	.	4g\	pax	4b\	pax
.	.	8d/	8b/	.	.	.	.	.
4r	.	8B/	8g/	.	8b\	bo-	8dd\	bo-
.	.	8d/J	8b/J	.	8b\	-ne	8dd\	-ne
=6	=6	=6	=6	=6	=6	=6	=6	=6
4D\	.	8a/L	8cc\L	.	8a\	Vo-	8cc\	Vo-
.	.	8g/	8b\	.	8g\	-lun-	8b\	-lun-
4r	.	8a/	8cc\	.	8a\	-ta-	8cc\	-ta-
.	.	8f#/J	8a\J	.	8f#\	-tis	8a\	-tis
!	!	!	!	!	!LO:LB:g=original	!	!	!
=7	=7	=7::|	=7	=7	=7	=7	=7	=7
!	!	!LO:TX:a:t=P:problem= 7-8 zapisane repetycją	!	!	!	!	!	!
4G\	.	8B/Lyy	8g/L	.	8g\L	pax	8b\L	pax
.	.	8d/yy	8b/	.	8b\J	.	8dd\J	.
!	!	!	!	!	!	!	!LO:LB:g=original	!
4r	.	8B/yy	8g/	.	8b\	bo-	8dd\	bo-
.	.	8d/Jyy	8b/J	.	8b\	-ne	8dd\	-ne
=8	=8	=8	=8	=8	=8	=8	=8	=8
4D\	.	8a/Lyy	8cc\L	.	8a\	vo-	8cc\	vo-
.	.	8g/yy	8b\	.	8g\	-lun-	8b\	-lun-
4r	.	8a/yy	8cc\	.	8a\	-ta-	8cc\	-ta-
.	.	8f#/Jyy	8a\J	.	8f#/	-tis	8a\	-tis
=9	=9	=9	=9	=9	=9	=9	=9	=9
4G\	.	8g/	8b\	.	8g\	pax	8b\	pax
.	.	8r	8r	.	8b\	.	8dd\	.
4D\	.	8f#/	8a/	.	8f#\	bo-	8a\	bo-
.	.	8r	8r	.	8a\	-ne	8cc\	-ne
=10	=10	=10	=10	=10	=10	=10	=10	=10
4G\	.	(16g/LL	16b/LL	.	4.g/	vo-	4.b\	vo-
.	.	16f#/	16a/	.	.	.	.	.
.	.	16g/	16b/	.	.	.	.	.
.	.	16a/JJ)	16cc/JJ	.	.	.	.	.
4r	.	8g/L|	8b/L	.	.	.	.	.
.	.	8f#/J|	8a/J	.	8f#/	-lun-	8a\	-lun-
!	!	!LO:LB:g=original	!	!	!	!	!	!
=11	=11	=11	=11	=11	=11	=11	=11	=11
4G\	.	8g/	8b\	.	8g\	-ta-	8b\	-ta-
.	.	8r	8r	.	8b\	.	8dd\	.
4D\	.	8f#/	8a/	.	8f#\	.	8a\	.
.	.	8r	8r	.	8a\	.	8cc\	.
=12	=12	=12	=12	=12	=12	=12	=12	=12
4GG/	f	16g/LL	16b\LL	.	4g\	-tis	4b\	-tis
.	.	16f#/	16a\	.	.	.	.	.
.	.	16g/	16b\	.	.	.	.	.
.	.	16a/JJ	16cc\JJ	.	.	.	.	.
4r	.	4g/	4b\	.	4r	.	4r	.
!	!	!	!LO:LB:g=original	!	!	!	!	!
=13	=13	=13	=13	=13	=13	=13	=13	=13
!	!	!	!	!	!LO:TX:a:t=12.	!	!LO:TX:a:t=8	!
!	!	!	!	!	!LO:N:vis=00	!	!LO:N:vis=00	!
8G\L	f	2d/ 2B/	8g/L	f	0r	.	0r	.
8B\	.	.	8b/	.	.	.	.	.
8d\	.	.	8dd/	.	.	.	.	.
8B\J	.	.	8b/J	.	.	.	.	.
=14	=14	=14	=14	=14	=14	=14	=14	=14
8A\L	.	8r	8a/L	.	.	.	.	.
8B\J	.	8d/L 8B/	8b/J	.	.	.	.	.
4G\	.	8d/ 8B/	4g/	.	.	.	.	.
.	.	8d/J 8B/	.	.	.	.	.	.
=15	=15	=15	=15	=15	=15	=15	=15	=15
8G\L	.	2d/ 2B/	8g/L	.	.	.	.	.
8B\	.	.	8b/	.	.	.	.	.
8d\	.	.	8dd/	.	.	.	.	.
8B\J	.	.	8b/J	.	.	.	.	.
!LO:LB:g=original	!	!	!	!	!	!	!	!
=16	=16	=16	=16	=16	=16	=16	=16	=16
!LO:TX:a:t=a	!	!	!	!	!	!	!	!
8A\L	.	8r	16a/LL	.	.	.	.	.
.	.	.	16g/	.	.	.	.	.
8B\J	.	8d/L 8B/	16a/	.	.	.	.	.
.	.	.	16b/JJ	.	.	.	.	.
4G\	.	8d/ 8B/	4g/	.	.	.	.	.
.	.	8d/J 8B/	.	.	.	.	.	.
=17	=17	=17	=17	=17	=17	=17	=17	=17
*tremolo	*	*	*	*	*	*	*	*
!	!	!	!	!	!LO:N:vis=00	!	!LO:N:vis=00	!
8D'\L	.	(16f#/LL	16a/LL	.	0r	.	0r	.
.	.	16e/	16g/	.	.	.	.	.
8D'\	.	16f#/	16a/	.	.	.	.	.
.	.	16g/JJ)	16b/JJ	.	.	.	.	.
8D'\	.	8.a/L	8.cc\L	.	.	.	.	.
8D'\J	.	.	.	.	.	.	.	.
.	.	16f#/Jk	16a\Jk	.	.	.	.	.
=18	=18	=18	=18	=18	=18	=18	=18	=18
8G'\L	.	(16g/LL	(16b\LL	.	.	.	.	.
.	.	16b/	16dd\)	.	.	.	.	.
8G'\	.	16b/	16gg\|	.	.	.	.	.
.	.	16a/JJ)	16ff#\JJ|	.	.	.	.	.
8G'\	.	(16cc\LL	(16ee\LL	.	.	.	.	.
.	.	16b\	16dd\)	.	.	.	.	.
8G'\J	.	16a\	16cc\|	.	.	.	.	.
.	.	16g\JJ)	16b\JJ	.	.	.	.	.
=19	=19	=19	=19	=19	=19	=19	=19	=19
*	*	*^	*	*	*	*	*	*
*	*	*tremolo	*tremolo	*	*	*	*	*	*
8D\L	.	8a/L	8f#\L	8cc\L|	.	.	.	.	.
8D\	.	8a/	8f#\	8a\J|	.	.	.	.	.
!	!	!	!	!LO:TX:t=P:problem=mixed beam	!	!	!	!	!
8D\	.	8a/	8f#\	8d/L|	.	.	.	.	.
8D\J	.	8a/J	8f#\J	8cc\J|	.	.	.	.	.
*Xtremolo	*	*Xtremolo	*Xtremolo	*	*	*	*	*	*
*	*	*v	*v	*	*	*	*	*	*
=20	=20	=20	=20	=20	=20	=20	=20	=20
8G\L	p	8d/L 8B/	(16b\LL	.	.	.	.	.
.	.	.	16cc\	.	.	.	.	.
8D\J	.	8d/J 8B/	16dd\	.	.	.	.	.
.	.	.	16b\JJ)	.	.	.	.	.
4GG/	.	4d/ 4B/	4g/	.	.	.	.	.
=21	=21	=21	=21	=21	=21	=21	=21	=21
!	!	!	!	!	!LO:N:vis=00	!	!	!
4D\	.	4f#/	4dd\	p	0r	.	4dd\	Lau-
4r	.	8f#/L	8dd\L	.	.	.	8dd\	-da-
.	.	8e/J	8cc#X\J	.	.	.	8cc#X\	-mus
=22||:	=22	=22	=22	=22	=22	=22	=22	=22
*	*	*	*2\right	*	*	*	*	*
!	!	!	!LO:TX:t=P:problem=2\right&colon; global	!	!	!	!	!
8D'\L	.	2f#/ 2A/	2dd\	.	.	.	4dd\	te
8F#'\	.	.	.	.	.	.	.	.
8A'\	.	.	.	.	.	.	4r	.
8d'\J	.	.	.	.	.	.	.	.
=23:||	=23	=23	=23	=23	=23	=23	=23	=23
!LO:TX:a:t=P:problem=Takt 22 zapisany repetycją	!	!	!	!	!	!	!	!
8D'\Lyy	.	8f#/L	8dd\L	p	.	.	8dd\	Bo-
8F#'\yy	.	8f#/J	8dd\J	.	.	.	8dd\	-ne
!	!	!	!	!	!	!	!LO:LB:g=original	!
8A'\yy	.	8f#/L	8dd\L	.	.	.	8dd\	di-
8d'\Jyy	.	16e/L	16cc#X\L	.	.	.	16cc#X\	-ci-
.	.	16e/JJ	16cc#\JJ	.	.	.	16cc#\	-mus
!	!	!LO:LB:g=original	!LO:LB:g=original	!	!	!	!	!
=24	=24	=24	=24	=24	=24	=24	=24	=24
4D\	.	2f#/	2dd\	.	.	.	4dd\	te
4r	.	.	.	.	.	.	4r	.
!	!	!	!	!	!LO:LB:g=original	!	!	!
=25	=25	=25	=25	=25	=25	=25	=25	=25
8D\L	.	(8b/L	(8dd\L	.	8b\L	a-	8dd\L	a-
8D\	.	8a/	8ccn\	.	8a\J	-do-	8ccn\J	-do-
8F#\	.	8a/	8cc\	.	8a\	-ra-	8cc\	-ra-
8A\J	.	8f#/J)	8a\J)	.	8f#\	-mus	8a\	-mus
=26	=26	=26	=26	=26	=26	=26	=26	=26
!LO:TX:t=P:problem=mixed beam	!	!	!	!	!	!	!	!
8GG/L	.	4.g/	4.b\	.	4.g\	te	4.b\	te
8G\	.	.	.	.	.	.	.	.
8GG/	.	.	.	.	.	.	.	.
8G\J	.	8b/	8dd\	.	8b\	glo-	8dd\	glo-
=27	=27	=27	=27	=27	=27	=27	=27	=27
!LO:TX:t=P:problem=mixed beam	!	!	!	!	!	!	!	!
8GG/L	.	(8b/L	(8dd\L	.	8b\L	-ri-	8dd\L	-ri-
8G\	.	8a/	8cc\	.	8a\J	-fi-	8cc\J	-fi-
8GG/	.	8a/	8cc\	.	8a\	-ca-	8cc\	-ca-
8G\J	.	8f#/J)	8a\J)	.	8f#\	-mus	8a\	-mus
=28	=28	=28	=28	=28	=28	=28	=28	=28
!LO:TX:t=P:problem=mixed beam	!	!	!	!	!	!	!	!
8GG/L	.	2g/	2b\	.	4g\	te	4b\	te
8G\	.	.	.	.	.	.	.	.
8GG/	.	.	.	.	4r	.	4r	.
8G\J	.	.	.	.	.	.	.	.
=29	=29	=29	=29	=29	=29	=29	=29	=29
4G\	.	8g/L	8b\L	.	8g\L	gra-	8b\L	gra-
.	.	8a/J	8cc\J	.	8a\J	-ti-	8cc\J	-ti-
4r	.	4b/	4dd\	.	4b\	-as	4dd\	-as
=30	=30	=30	=30	=30	=30	=30	=30	=30
4G\	.	8g/L	8b\L	.	8g\L	a-	8b\L	a-
.	.	8a/J	8cc\J	.	8a\J	-gi-	8cc\J	-gi-
4r	.	4b/	4dd\	.	4b\	-mus	4dd\	-mus
=31	=31	=31	=31	=31	=31	=31	=31	=31
8D\L	.	(8f#/L	(8dd\L	.	8b\L	ti-	8dd\L	ti-
8E\	.	8g/	8ee\	.	8cc\J	.	8ee\J	.
8D\	.	8f#/	8dd\	.	8b\L	.	8dd\L	.
8C#X\J	.	8e/J)	8cc#X\J)	.	8a\J	.	8cc#X\J	.
!LO:LB:g=original	!	!	!	!	!	!	!	!
=32	=32	=32	=32	=32	=32	=32	=32	=32
2D/	.	2f#/	2dd\	.	4b\	-bi	4dd\	-bi
.	.	.	.	.	4r	.	4r	.
!	!	!	!	!	!	!	!LO:LB:g=original	!
=33	=33	=33	=33	=33	=33	=33	=33	=33
4D\	.	8a/L	8cc\L	.	8a\	prop-	8ccn\	prop-
.	.	8a/	8cc\	.	8a\	-ter	8cc\	-ter
!	!	!	!	!	!LO:LB:g=original	!	!	!
4r	.	8f#/	8a\	.	8f#/	mag-	8a\	mag-
.	.	8f#/J	8a\J	.	8f#/	-nam	8a\	-nam
=34	=34	=34	=34	=34	=34	=34	=34	=34
4GG/	.	8d/L	8b/L	.	8b\	glo-	8b\	glo-
.	.	8d/	8b/	.	8b\	-riam	8b\	-riam
4r	.	8B/	8g/	.	8g\	/glo-	8g\	/glo-
.	.	8B/J	8g/J	.	8g\	-riam/	8g\	-riam/
=35	=35	=35	=35	=35	=35	=35	=35	=35
4D\	.	4c/	4a/	.	4d/	tu-	4a\	tu-
4DD/	.	4A/	4f#/	.	4f#/	.	4f#/	.
=36	=36	=36	=36	=36	=36	=36	=36	=36
*	*	*tremolo	*	*	*	*	*	*
4GG/	.	8d/L 8B/	8g/L	f	4g\	-am	4g/	-am
.	.	8d/ 8B/	16a/L	.	.	.	.	.
.	.	.	16b/JJ	.	.	.	.	.
4r	.	8d/ 8B/	16g/LL	.	4r	.	4r	.
.	.	.	16f#/	.	.	.	.	.
.	.	8d/J 8B/	16e/	.	.	.	.	.
.	.	.	16d/JJ	.	.	.	.	.
*	*	*Xtremolo	*	*	*	*	*	*
=37	=37	=37	=37	=37	=37	=37	=37	=37
!	!	!	!	!	!LO:TX:a:t=8	!	!LO:TX:a:t=7.	!
!	!	!	!	!	!LO:N:vis=00	!	!LO:N:vis=00	!
8G\	.	8d/ 8B/	16g/LL	.	0r	.	0r	.
.	.	.	16d/	.	.	.	.	.
8r	.	8r	16b/	.	.	.	.	.
.	.	.	16g/JJ	.	.	.	.	.
!	!	!	!LO:LB:g=original	!	!	!	!	!
8D\	.	8d/ 8c/	8.a/L	.	.	.	.	.
8r	.	8r	.	.	.	.	.	.
.	.	.	16cc/Jk	.	.	.	.	.
=38	=38	=38	=38	=38	=38	=38	=38	=38
8G\	.	8d/ 8B/	8.b/L	.	.	.	.	.
8r	.	8r	.	.	.	.	.	.
.	.	.	16g/K	.	.	.	.	.
8D\	.	8d/ 8c/	8.a/	.	.	.	.	.
8r	.	8r	.	.	.	.	.	.
.	.	.	16cc/Jk	.	.	.	.	.
=39	=39	=39	=39	=39	=39	=39	=39	=39
8G\	.	8d/ 8B/	8.b/L	.	.	.	.	.
8r	.	8r	.	.	.	.	.	.
.	.	.	16g/K	.	.	.	.	.
!	!	!LO:LB:g=original	!	!	!	!	!	!
8D\	.	8d/ 8c/	8.a/	.	.	.	.	.
8r	.	8r	.	.	.	.	.	.
.	.	.	16cc/Jk	.	.	.	.	.
=40	=40	=40	=40	=40	=40	=40	=40	=40
*	*	*tremolo	*	*	*	*	*	*
8AA/	.	(8e/L	8.cc#X\L	.	.	.	.	.
8r	.	8g/	.	.	.	.	.	.
.	.	.	16a\K	.	.	.	.	.
8AA/	.	8e/	8.ee\	.	.	.	.	.
8r	.	8g/J)	.	.	.	.	.	.
.	.	.	16gg\Jk	.	.	.	.	.
=41	=41	=41	=41	=41	=41	=41	=41	=41
!	!	!	!	!	!LO:N:vis=00	!	!LO:N:vis=0	!
8D\	.	(8f#/L	8.ff#\L	.	0r	.	1r	.
8r	.	8a/	.	.	.	.	.	.
.	.	.	16dd\K	.	.	.	.	.
8AA/	.	8f#/	8.ee\	.	.	.	.	.
8r	.	8a/J)	.	.	.	.	.	.
.	.	.	16gg\Jk	.	.	.	.	.
*	*	*Xtremolo	*	*	*	*	*	*
=42	=42	=42	=42	=42	=42	=42	=42	=42
8D\L	.	(16a/LL	16ff#\LL	.	.	.	.	.
.	.	16a/	16ff#\	.	.	.	.	.
8G\J	.	16b/	16gg\	.	.	.	.	.
.	.	16g/JJ)	16ee\JJ	.	.	.	.	.
!LO:TX:t=P:problem=mixed beam	!	!	!	!	!	!	!	!
8A\L	.	8f#/L|	8.dd\L	.	.	.	.	.
8AA/J	.	8e/J|	.	.	.	.	.	.
.	.	.	16cc#X\Jk	.	.	.	.	.
!LO:LB:g=original	!	!	!	!	!	!	!	!
=43	=43	=43	=43	=43	=43	=43	=43	=43
4D\	.	4f#/	4dd\	.	.	.	2r	.
4r	.	4r	16dd\LL	.	.	.	.	.
.	.	.	16cc#X\	.	.	.	.	.
.	.	.	16ccn\	.	.	.	.	.
.	.	.	16a\JJ	.	.	.	.	.
=44	=44	=44	=44	=44	=44	=44	=44	=44
!LO:TX:t=P:problem=nadmiarowa pauza w canto 2	!	!LO:TX:t=P:problem=nadmiarowa pauza w canto 2	!LO:TX:t=P:problem=nadmiarowa pauza w canto 2	!	!	!	!LO:TX:t=P:problem=nadmiarowa pauza w canto 2	!
2ryy	.	2ryy	2ryy	.	.	.	2ryy	.
=45	=45	=45	=45	=45	=45	=45	=45	=45
4GG/	.	4b\	4dd\	p	4b\	Do-	4dd\	Do-
4G\	.	8b\L	8dd\L	.	8b\	-mi-	8dd\	-mi-
.	.	8b\J	8dd\J	.	8b\	-ne	8dd\	-ne
=46	=46	=46	=46	=46	=46	=46	=46	=46
4G\	.	4b\	4dd\	.	4b\	Fil-	4dd\	Fil-
4GG/	.	4g/	4b\	.	4g\	-li	4b\	-li
=47	=47	=47	=47	=47	=47	=47	=47	=47
*tremolo	*	*	*	*	*	*	*	*
*2\right	*	*	*	*	*	*	*	*
8D\L	.	8a/L	8cc\L	.	8a\	u-	8cc\	u-
8D\	.	8a/	8cc\	.	8a\	-ni-	8cc\	-ni-
8D\	.	8a/	8cc\	.	8a\	-ge-	8cc\	-ge-
8D\J	.	8g/J	8b\J	.	8g\	-ni-	8b\	-ni-
*Xtremolo	*	*	*	*	*	*	*	*
=48	=48	=48	=48	=48	=48	=48	=48	=48
4D\	.	16f#/LL	16a\LL	f	4f#/	-te	4a\	-te
.	.	16g/	16b\	.	.	.	.	.
.	.	16a/	16cc\	.	.	.	.	.
.	.	16b/JJ	16dd\JJ	.	.	.	.	.
4r	.	8a/L	8cc\L	.	4r	.	4r	.
.	.	8f#/J	8a\J	.	.	.	.	.
!	!	!	!LO:LB:g=original	!	!LO:LB:g=original	!	!	!
=49	=49	=49	=49	=49	=49	=49	=49	=49
4GG/	.	4b\	4dd\	p	4b\	Je-	4dd\	Je-
4G\	.	8b\L	8dd\L	.	8b\	-su	8dd\	-su
.	.	8b\J	8dd\J	.	8b\	.	8dd\	.
!	!	!	!	!	!	!	!LO:LB:g=original	!
=50	=50	=50	=50	=50	=50	=50	=50	=50
4G\	.	4cc\	4dd\	.	4b\	Je-	4dd\	Je-
4GG/	.	4g/	4b\	.	4g\	-su	4b\	-su
=51	=51	=51	=51	=51	=51	=51	=51	=51
2D\	.	8a/L	8cc\L	.	8a\	Je-	8cc\	Je-
.	.	8a/	8cc\	.	8a\	-si	8cc\	-si
.	.	8a/	8cc\	.	8a\	chris-	8cc\L	chris-
.	.	8g/J	8b\J	.	8g\	.	8b\J	.
!	!	!LO:LB:g=original	!	!	!	!	!	!
=52	=52	=52	=52	=52	=52	=52	=52	=52
4D\	.	16f#/LL	16a/LL	f	4f#/	-te	4a\	-te
.	.	16e/	16g/	.	.	.	.	.
.	.	16d/	16f#/	.	.	.	.	.
.	.	16e/JJ	16g/JJ	.	.	.	.	.
4r	.	8f#/L	8a/L	.	4r	.	4r	.
.	.	8d/J	8d/J	.	.	.	.	.
=53	=53	=53	=53	=53	=53	=53	=53	=53
!LO:TX:t=P:problem=mixed beam	!	!	!	!	!	!	!	!
8GG'/L	.	4g/	4b\	p	8g\L	Cum	8b\L	Cum
8G'\	.	.	.	.	8b\J	.	8dd\J	.
8F#'\	.	8r	8r	.	8a\	ſan-	8cc\	ſan-
8D'\J	.	8f#/	8a/	.	8f#\	-cto.	8a\	-cto.
=54	=54	=54	=54	=54	=54	=54	=54	=54
!LO:TX:t=P:problem=mixed beam	!	!	!	!	!	!	!	!
8GG'/L	.	4g/	4b\	.	8g\	ſpi-	8b\L	ſpi-
8G'\	.	.	.	.	8b\	-ri-	8dd\J	-ri-
8F#'\	.	8r	8r	.	8a\	-tu	8cc\	-tu-
8D'\J	.	8f#/	8a/	.	8f#/	In	8a\	-i
=55	=55	=55	=55	=55	=55	=55	=55	=55
!LO:TX:t=P:problem=mixed beam	!	!	!	!	!	!	!	!
8GG'/L	.	4g/	4b\	.	8g\L	glo-	8b\L	In
8G'\	.	.	.	.	8b\J	.	8dd\J	glo-
8F#'\	.	8r	8r	.	8a\	-ri-	8cc\	-ri-
8D'\J	.	8f#/	8a/	.	8f#\	-a	8a\	-a
=56	=56	=56	=56	=56	=56	=56	=56	=56
!LO:TX:t=P:problem=mixed beam	!	!	!	!	!	!	!	!
8GG'/L	.	4g/	4b\	.	8g\L	De-	8b\L	De-
8G'\	.	.	.	.	8b\J	-i	8dd\J	-i
!	!	!	!	!	!LO:LB:g=original	!	!	!
8F#'\	.	8r	8r	.	8a\	pa-	8cc\	pa-
8D'\J	.	8f#/	8a/	.	8f#\	-tris	8a\	-tris
!LO:LB:g=original	!	!	!	!	!	!	!	!
=57	=57	=57	=57	=57	=57	=57	=57	=57
!LO:TX:t=P:problem=mixed beam	!	!	!	!	!	!	!	!
8G\L	.	4g/	4b/ 4d/	.	4g/	a-	4b\	a-
8A\	.	.	.	.	.	.	.	.
8d\	.	4d/	4a/ 4d/	.	4f#/	.	4a\	.
8D/J	.	.	.	.	.	.	.	.
=58	=58	=58	=58	=58	=58	=58	=58	=58
8r	.	4.g/	4.b/	.	4g/	-men	4b\	-men
8G'\L	.	.	.	.	.	.	.	.
8F#'\	.	.	.	.	4r	.	4r	.
8D'\J	.	8f#/	8a/	.	.	.	.	.
!	!	!	!	!	!	!	!LO:LB:g=original	!
=59	=59	=59	=59	=59	=59	=59	=59	=59
!LO:TX:a:t=P:problem=Takt 59 zapisany repetycją	!	!	!	!	!	!	!	!
8ryy	.	8g/	8b\|	.	8g\L	In	8b\L	In
8G'\Lyy	.	8r	8r	.	8b\J	glo-	8dd\J	glo-
8F#'\yy	.	8f#/	8a\|	.	8a\	-ri-	8cc\	-ri-
8D'\Jyy	.	8r	8r	.	8f#\	-a	8a\	-a
=60	=60	=60	=60	=60	=60	=60	=60	=60
8r	.	8g/	8b\|	.	8g\	De-	8b\L	De-
8G'\L	.	8r	8r	.	8b\	-i	8dd\J	-i
8F#'\	.	8f#/	8a\|	.	8a\	pat-	8cc\	pat-
8D'\J	.	8r	8r	.	8f#/	-ris.	8a\	-ris
!	!	!	!LO:LB:g=original	!	!	!	!	!
=61	=61	=61	=61	=61	=61	=61	=61	=61
8r	.	8g/	8b\	.	8g\L	In	8b\L	/In
8G'\L	.	8r	8r	.	8b\J	glo-	8dd\J	glo-
8F#'\	.	8f#/	8a/	.	8a\	-ri-	8cc\	-ri-
8D'\J	.	8r	8r	.	8f#/	-a	8a\	-a/
=62	=62	=62	=62	=62	=62	=62	=62	=62
8r	.	8g/	8b/	.	8g\	De-	8b\L	/De-
8G'\L	.	8r	8r	.	8b\	-i	8dd\J	-i
8F#'\	.	8f#/	8a/	.	8a\	pat-	8cc\	pat-
8D'\J	.	8r	8r	.	8f#/	-ris	8a\	-ris/
=63	=63	=63	=63	=63	=63	=63	=63	=63
!LO:TX:t=P:problem=mixed beam	!	!	!	!	!	!	!	!
8GG'/L	.	4b/ 4d/	4gg/ 4b/ 4d/	.	4g/	a-	4b\	a-
8G'\	.	.	.	.	.	.	.	.
8F#'\	.	4a/ 4d/	4ff#/ 4a/ 4d/	.	4f#/	.	4a\	.
8D'\J	.	.	.	.	.	.	.	.
=64	=64	=64	=64	=64	=64	=64	=64	=64
4GG/	.	4b/ 4d/	4gg/ 4b/ 4d/	.	4g/	-men	4b\	-men
4r	.	4r	4r	.	4r	.	4r	.
==	==	==	==	==	==	==	==	==
*-	*-	*-	*-	*-	*-	*-	*-	*-
!!!system-decoration: [(s1,s2)][([(s3,s4)]s5)]
!!!RDF**kern: > = above
!!!RDF**kern: < = below
!!!RDF**dynam: p = p.
!!!RDF**dynam: f = for.
!!!RDF**kern: | = vertical stroke
!!!EED: Leszek Kubiak
!!!EEV: 2021-01-08
!!!ENC: Tomasz Grochalski
!!!END: 2020-12-06
!!!YEC: Copyright 2022 Narodowy Instytut Fryderyka Chopina (https://polishscores.org)
!!!YEM: License CC-BY-4.0 (https://creativecommons.org/licenses/by/4.0)
